modules/themify-icons/icons/pin2.svg

<?xml version="1.0" encoding="utf-8"?>
<!-- Generated by IcoMoon.io -->
<!DOCTYPE svg PUBLIC "-//W3C//DTD SVG 1.1//EN" "http://www.w3.org/Graphics/SVG/1.1/DTD/svg11.dtd">
<svg version="1.1" xmlns="http://www.w3.org/2000/svg" xmlns:xlink="http://www.w3.org/1999/xlink" width="17" height="17" viewBox="0 0 17 17">
<g>
</g>
	<path d="M8 11.5h1v5.5h-1v-5.5zM14 8.8v2.2h-11v-2.2l1.094-0.487 1.106-6.313-0.429-0.779-0.671-1.221h8.8l-0.672 1.221-0.428 0.779 1.106 6.312 1.094 0.488zM13 9.449l-0.986-0.44-0.092-0.524-1.168-6.659 0.17-0.309 0.285-0.517h-5.418l0.455 0.827-0.060 0.346-1.2 6.836-0.986 0.44v0.551h9v-0.551z" fill="#000000" />
</svg>

<svg xmlns="http://www.w3.org/2000/svg" width="17" height="17" viewBox="0 0 17 17"><path d="M8 11.5h1V17H8v-5.5zm6-2.7V11H3V8.8l1.094-.487L5.2 2l-.429-.779L4.1 0h8.8l-.672 1.221L11.8 2l1.106 6.312L14 8.8zm-1 .649l-.986-.44-.092-.524-1.168-6.659.17-.309.285-.517H5.791l.455.827-.06.346-1.2 6.836-.986.44V10h9v-.551z"/></svg>
